X:1
T:Title
%%score { ( 1 3 4 ) | ( 2 5 ) }
L:1/8
M:4/4
K:Bb
V:1 treble nm="Grand Piano"
V:3 treble 
V:4 treble 
V:2 bass 
V:5 bass 
V:1
 z4 z2[Q:1/4=116] F2 | [DB]3 [EB] [DB]2 [F,F]2 | [DB]3 [EB] [DB]2 c2 | d2 c2 B2 [=Ec]2 | %4
 c3 A F2 F2 | A3 A A2 B2 | [EAc]3 [D_A=B] [E=Ac]2 [EF]2 | [DFB]3 [DFB] [B,FB]2 c2 | d3 _d =d2 F2 | %9
 B3 F DB, D>F | B6 c2 | d3 c BF B>c | d6 c2 | d4 z4 |[M:7/8] B2 [CEA]2 [DB]3 |[M:1/4] F2 | %16
[M:4/4] F3 F F2 A2 | c3 [=Ec] c2 F2 | F3 F F2 c2 | d3 c d2 [EAc]2 | z4 [^FA]4 | [B,G]6 [C^FA]2 | %22
 z4 [Gc]4 | [^Fd]4 [=Fe]4 | [DFf]3 [FBd] [EBe]2 [EGc]2 | [DFB]4 [CEA]4 |[M:3/4] [DB]6 |] %27
V:2
 z4 z2 F,2 | [B,,F,]3 [B,,G,] [B,,F,]2 z2 | [B,,F,]3 [B,,G,] [B,,F,]2[K:treble] [F,A,F]2 | %3
 [B,F]2[K:bass] [F,A,F]2 [G,B,D]2 [C,B,]2 | [F,A,F]3 [F,CF] [F,A,]2 [F,A,]2 | %5
 [F,CF]3 [F,CF] [F,CE]2 [F,DF]2 | F,3 F, F,2 A,2 | B,3 B,, D,2[K:treble] [F,A,F]2 | %8
 [B,F]3 [B,=E] [B,F]2[K:bass] F,2 | B,3 F, D,B,, D,>F, | B,6[K:treble] [F,CF]2 | %11
 [B,DB]3[K:bass] [F,C] [D,B,D][B,,F,B,] [D,B,D]>[F,CF] | [B,DB]6 [F,A,F]2 | %13
 [B,F]2[K:bass] [G,=B,]2 [C,C]2 [E,G,E]2 |[M:7/8] [F,D]2 [F,,F,]2 [B,,B,]3 |[M:1/4] F,2 | %16
[M:4/4] F,3 F, F,2 [F,CF]2 | [F,A,F]3 [C,G,] [F,A,F]2 F,2 | F,3 F, F,2[K:treble] [A,CA]2 | %19
 [B,DB]3 [A,CA] [B,DB]2[K:bass] F,2 | G,4 z2 C2 | G,6 D,2 | G,4 B,2 z2 | [D,A,]4 A,2 C2 | %24
 B,,3 _A, G,2 E,2 | F,4 [F,,F,]4 |[M:3/4] [B,,B,]6 |] %27
V:3
 x8 | x8 | x8 | x8 | x8 | x8 | x8 | x8 | x8 | x8 | x8 | x8 | x8 | z2 z d [Ge]2 c2 |[M:7/8] x7 | %15
[M:1/4] x2 |[M:4/4] x8 | x8 | x8 | x8 | [DGB]4 D2 z2 | x8 | [B,GB]4 z2 A,2 | x8 | x8 | x8 | %26
[M:3/4] x6 |] %27
V:4
 x8 | x8 | x8 | x8 | x8 | x8 | x8 | x8 | x8 | x8 | x8 | x8 | x8 | z2 G2 z4 |[M:7/8] x7 | %15
[M:1/4] x2 |[M:4/4] x8 | x8 | x8 | x8 | x8 | x8 | x8 | x8 | x8 | x8 |[M:3/4] x6 |] %27
V:5
 x8 | x8 | x6[K:treble] x2 | x2[K:bass] x6 | x8 | x8 | x8 | x6[K:treble] x2 | x6[K:bass] x2 | x8 | %10
 x6[K:treble] x2 | x3[K:bass] x5 | x8 | x2[K:bass] x6 |[M:7/8] x7 |[M:1/4] x2 |[M:4/4] x8 | x8 | %18
 x6[K:treble] x2 | x6[K:bass] x2 | z4 D,4 | x8 | z4 E,4 | z4 C,4 | x8 | x8 |[M:3/4] x6 |] %27

